X: 23229
T: Leary's Pound Note
R: polka
M: 2/4
K: Ddorian
|:A,D DE|FG A2|G/F/D DF|~ED C/A,/G,|
A,D DE|FG A2|G/F/D EC|D2 D2:|
|:Ad de|~f2 ed|cA AB|c2 Bc|
Ad de|~f2 ed|cA G/F/E|F/E/D D2:|

